X: 18
T: London Assembly
%R: reel
B: "Twenty Four Country Dances for the Year 1780", Thomas Skillern, ed. p.9 #2
F: http://www.vwml.org/browse/browse-collections-dance-tune-books/browse-skillerns1780#
Z: 2014 John Chambers <jc:trillian.mit.edu>
M: 2/4
L: 1/16
K: F
c2 |\
fcBc dBAB | cAFA G3A |\
Bcde fcdB | cAGA F2 :|\
|: c2 |\
FAcf afef | gece d3e |
fdcd ec=Bc | fdc=B c2de |\
fc_Bc dBAB | cAFA G3A |\
Bcde fcdB | cAGA F2 :|
%%begintext align
%%   Cast down one Cu. & lead round the
%% bottom .|. Cast up one Cu. to the top & lead
%% thro' the 2d into your own places :|. Cross
%% over two Cu. lead up & foot out the Time
%% Cast off one Cu. .|: Hands four round with
%% the bottom & Right & Left with the top :|:
%%endtext

%%sep 1 1 500
%%sep 1 1 500
